X: 24012
T: Log, The
R: reel
M: 4/4
K: Adorian
a2 ag a2 ag|e2 ed egge|dBde gedB|GABd edeg|
a2 ag a2 ag|e2 ed eage|dBde g3 e|dBGA BAGE|
D3 E GE E2|deBA BE E2|D3 E GE E2|deBA B3 E|
D3 E GE E2|deBA BE E2|D3 E GE E2|deBA B4|
deBA BG G2|dega baag|deBA BG G2|dega g2 gf|
deBA BG G2|dega baag|deBA BG G2|dega g2 gf|
e2 dB e2 dB|dega baag|e2 dB e2 dB|dega g2 gf|
e2 dB e2 dB|dega baag|e2 dB e2 dB|dega g4|
e2 dB de g2|deBA BGGB|deed dB d2|dega g2 gf|
e2 dB de g2|deBA BGED|GABd egge|dBde gdeg||

